src/actions/24/foreignkey_constraint.svg

<svg viewBox="0 0 24 24" xmlns="http://www.w3.org/2000/svg">
 <defs>
  <style type="text/css">.ColorScheme-Text {
        color:#2e3440;
      }</style>
 </defs>
 <g transform="translate(1,1)">
  <path class="ColorScheme-Text" d="m5 3v16h1v-8h8v-1h-8v-6h10v-1h-10-1z" fill="currentColor"/>
 </g>
</svg>

<svg xmlns="http://www.w3.org/2000/svg" viewBox="0 0 24 24">
  <defs id="defs3051">
    <style type="text/css" id="current-color-scheme">
      .ColorScheme-Text {
        color:#2e3440;
      }
      </style>
  </defs><g transform="translate(1,1)">
 <path 
     style="fill:currentColor;fill-opacity:1;stroke:none" 
     d="M 5 3 L 5 19 L 6 19 L 6 11 L 14 11 L 14 10 L 6 10 L 6 4 L 16 4 L 16 3 L 6 3 L 5 3 z "
     class="ColorScheme-Text"
     />
</g></svg>
